X:1
T:Title
%%score { ( 1 4 ) | ( 2 3 ) }
L:1/8
M:6/8
K:Ab
V:1 treble nm="Grand Piano"
V:4 treble 
V:2 bass 
V:3 bass 
V:1
 z3 z2[Q:1/4=108] [A,CE] | .[A,CE]2 [CG] .[CA]2 [A,CF] | A2 G G2 G | GFE BA[B,DG] | %4
[M:5/8] [DF]3 E2 |[M:1/8] [A,CE] |[M:3/4] .[A,CE]2 [CG][CA] [DB][Ec] | %7
 [Fd]d [A,DF] [A,DF]2 [A,DF] | =D-[DB] [CDA] [B,DG]2 [A,DF] |[M:5/8] [G,E]-[G,E]- [G,E]3 | %10
[M:1/8] [CE] |[M:3/4] c-[Fc-] [Gc]c- [Gc][Fc] | [Ad]2 [Gd] d2- [Gd] | d-[Fd-] [Ed]d- [Ad][Gd] | %14
[M:5/8] [Fd]2 [Ec] [Ec]2 |[M:1/8] [CE] |[M:3/4] C-[CF] [CG][CA] [DB][Ec] |[M:7/8] e2 z z z z2 | %18
[M:3/4] [Ec]2 [CAc] [EGc]2 [DGB] |[M:5/8] [CA]-[CA]- [CA]3 |] %20
V:2
 z3 z2 A,, | z F[A,,E,] z GA,, | [E,B,D]2 [E,B,D] [E,B,D]2 [E,B,D] | %3
 [E,B,D][E,A,D][E,G,D] [E,D]-[E,A,D]E, |[M:5/8] z z2 C2 |[M:1/8] A,, | %6
[M:3/4] z F [A,,E,] [A,,E,]2 [A,,A,] | z F D, D,2 D, | z F, B,, B,,2 B,, |[M:5/8] E,-E,- E,3 | %10
[M:1/8] A,, |[M:3/4] [A,,A,]2 [A,,E,][A,,E,] [A,,E,][A,,A,] | [E,B,]2 [E,B,] [E,B,]2 [E,B,] | %13
 B,A, [E,G,][E,G,] [E,A,][E,B,] |[M:5/8] [A,,A,]2 [A,,A,] [A,,A,]2 |[M:1/8] [A,,A,] | %16
[M:3/4] [A,,A,]2 [A,,E,][A,,E,] [A,,E,][A,,A,] | %17
[M:7/8][K:treble] [CA]E[A,D] [A,C]3[K:bass] [D,A,] |[M:3/4] .A,2 z2 z2 |[M:5/8] A,,-A,,- A,,3 |] %20
V:3
 x6 | .A,,3 .[A,,E,]3 | x6 | z3 .G,3 |[M:5/8] A,,-A,,- A,,3 |[M:1/8] x |[M:3/4] A,,2 z2 z2 | %7
 [C,A,]2 z2 z2 | B,,2 z2 z2 |[M:5/8] x5 |[M:1/8] x |[M:3/4] x6 | x6 | E,2 z2 z2 |[M:5/8] x5 | %15
[M:1/8] x |[M:3/4] x6 |[M:7/8][K:treble] A,2 z z z z2[K:bass] |[M:3/4] E,-[E,B,] E, E,2 E, | %19
[M:5/8] x5 |] %20
V:4
 x6 | x6 | x6 | x6 |[M:5/8] A,-A,- A,3 |[M:1/8] x |[M:3/4] x6 | x6 | .[B,F]2 z2 z2 |[M:5/8] x5 | %10
[M:1/8] x |[M:3/4] .E2 z A z2 | z2 z .G3 | .G2 z B z2 |[M:5/8] x5 |[M:1/8] x |[M:3/4] .E2 z2 z2 | %17
[M:7/8] z c[Be] [Ae]3 [Fd] |[M:3/4] x6 |[M:5/8] x5 |] %20

